X:1
T:BEAU SOIR
T:BEAU SOIR
T:CL.A.DEBUSSY
C:CL.A.DEBUSSY
%%score 1 { ( 2 5 ) | ( 3 4 ) }
L:1/8
Q:1/4=40
M:3/4
K:E
V:1 treble nm="FLUTE"
V:2 treble nm="PIANO"
V:5 treble 
V:3 bass 
V:4 bass 
V:1
"^Andante ma non troppo" z6[Q:1/4=50][Q:1/4=46][Q:1/4=38] | %1
[Q:1/4=40] z6[Q:1/4=50][Q:1/4=46][Q:1/4=38] |[Q:1/4=40] z6[Q:1/4=50][Q:1/4=46][Q:1/4=38] | %3
[Q:1/4=38] z6[Q:1/4=48][Q:1/4=44][Q:1/4=36] |!p![Q:1/4=40] (G2 GG GG[Q:1/4=50] | %5
[Q:1/4=40] A4)[Q:1/4=46] (B[Q:1/4=42]=c[Q:1/4=50] |[Q:1/4=40] B2 G2[Q:1/4=46] B2[Q:1/4=50] | %7
[Q:1/4=40] (=d4[Q:1/4=46] d7/4)) x/4[Q:1/4=50][Q:1/4=38] | %8
[Q:1/4=40] (^de B2[Q:1/4=46] GF[Q:1/4=50] |[Q:1/4=40] FE =D=C[Q:1/4=42] DE)[Q:1/4=50] | %10
[Q:1/4=40]!pp! E6-[Q:1/4=50][Q:1/4=46][Q:1/4=42] | %11
[Q:1/4=40] E2[Q:1/4=46] z2[Q:1/4=42] z2[Q:1/4=50][Q:1/4=34] | %12
[Q:1/4=50] (BB G2[Q:1/4=48] BB[Q:1/4=50] | dB G^E[Q:1/4=46] EG[Q:1/4=50] | %14
[Q:1/4=48] B4) B z[Q:1/4=50] |!<(! (d4!<)! B2 |!pp!!>(! d4) (B!>)!G |!pp! (D2 ^E2) G2 | %18
[Q:1/4=48] ^A4)[Q:1/4=44] z2[Q:1/4=46] |[Q:1/4=56] z4!p! (CF | A2 AA AA |[Q:1/4=60] c3 c ce | %22
 d4[Q:1/4=56] d7/4) x/4 |[Q:1/4=68]"^cresc." =dB B2 F=D | =DE FG B=d |[Q:1/4=72]!mf! (f6- | %26
!f! f4 G2) |"^dim." (B2 AA GE |!p! F6) | %29
[Q:1/4=66]"^dim." z !tenuto!=D !tenuto!D!tenuto!D !tenuto!D!tenuto!D | %30
!p![Q:1/4=60] =D2[Q:1/4=56] D z[Q:1/4=50] z2[Q:1/4=42] | %31
 z6[Q:1/4=50][Q:1/4=46][Q:1/4=42][Q:1/4=38] |!p![Q:1/4=46]"^Plus lent." F4 !tenuto!F!tenuto!F | %33
[Q:1/4=30] A2-[Q:1/4=46] A z z2 |[Q:1/4=46] z6[Q:1/4=50][Q:1/4=46][Q:1/4=38] | %35
[Q:1/4=46] z6[Q:1/4=50][Q:1/4=46][Q:1/4=38] | %36
!pp![Q:1/4=46] (!tenuto!G2 !tenuto!G2[Q:1/4=44] !tenuto!G2[Q:1/4=50][Q:1/4=32] | %37
[Q:1/4=40] B6-)[Q:1/4=46][Q:1/4=42][Q:1/4=32] |[Q:1/4=46] B4 z2[Q:1/4=30] | %39
[Q:1/4=42] z6[Q:1/4=36][Q:1/4=30] | z6 |] %41
V:2
!pp!"^Andante ma non troppo" x2 (3B,EB (3z z !tenuto![Beb] | x2 (3B,=FB (3z z !tenuto![B=fb] | %2
 x2!<(! (3B,EB (3z z !tenuto![Beb]!<)! |!p! x2 (3=D!>(!=G=d (3d=g=d'!>)! | %4
!pp! x2 (3B,EB (3z z [Beb] | x2 (3B,=FB (3z z [B=fb] | x2!<(! (3B,EB (3z z [Beb]!<)! | %7
!p! x2 (3=D!>(!=G=d (3d=g=d'!>)! | x2 (3=B,EB (3z z [Beb] | x2 (3G,=CG (3z z [G=cg] | %10
!pp! x2 (3G,=CG (3z z [G=cg] | x2 (3B,EB (3Beb | (3z (Bd (3bdB (3GBd) | x2 (3B,^EB (3B^eb | %14
 (3z (Bd (3bdB (3GBd) | (^a2 g2 f^e) | (^a2 g2 f^e) | (d2 c2 B2 |!pp! ^A4) z2 | %19
"^a Tempo."!p! ([Cc]2 [Ff]2 [Gg]2 | [Dd]4 cB) | ([Cc]2 [Ff]2 [Gg]2 | [Aa]2 [Gg]2 [Ff]2) | %23
"_cresc." ([Ff]2 [Bb]2 [cc']2 | [Gg]4 fe) | ([Ff]2 [Bb]2 [cc']2 |!f! [=d=d']2 [cc']2 [Bb]2) | %27
"_dim." ([Bb]2 [Aa]2 ge | f2 =d2 c2) | B2 A2 GE |!p! F2[K:bass] =D2 A,2 |!p! [^D,A,C]6[K:treble] | %32
"^Plus lent." [DAc]6- | [DAc]2 z2 z2 |!pp! x2 (3B,EB (3z z [Beb] | x2 (3B,=FB (3z z [B=fb] | %36
 x2 (3B,EB (3z z [Beb] |!pp! x2[I:staff +1] (3=G,B,[I:staff -1]D!>(! (3=GBd!>)! | %38
!pp! (=g b2 d'2 =g' | [be'^g']6) |!pp! [GB]6 |] %41
V:3
!ped! (3(E,,B,,G, x2 (3E,B,G)!ped-up! |!ped! (3=D,,A,,=F, x2 (3=D,A,=F!ped-up! | %2
!ped! (3(E,,B,,G, x2 (3E,B,G)!ped-up! |!ped! (3=G,,=D,_B, x4!ped-up! | %4
!ped! (3(E,,B,,G, x2 (3E,B,G)!ped-up! |!ped! (3=D,,A,,=F, x2 (3=D,A,=F!ped-up! | %6
!ped! (3(E,,B,,G, x2 (3E,B,G)!ped-up! |!ped! (3=G,,=D,_B, x4!ped-up! | %8
!ped! (3(E,,B,,^G, x2 (3E,B,G)!ped-up! |!ped! (3(=C,,G,,E, x2 (3=C,G,E)!ped-up! | %10
!ped! (3(=C,,G,,E, x2 (3=C,G,E)!ped-up! |!ped! (3E,,B,,G, x2 B,2-!ped-up! | %12
!ped! (D2 G2 F2!ped-up! |!ped![I:staff -1] ^E4[I:staff +1] DC)!ped-up! |!ped! (D2 G2 F2!ped-up! | %15
!ped! ^E2 F2 ^AG)!ped-up! |!ped! (^E2 F2 ^AG)!ped-up! |!ped! (F2 ^E2 D2)!ped-up! | %18
!ped! [F,,C,]6!ped-up! |!ped! (F,,,F,,C,F,A,C)!ped-up! |!ped! (B,,F,A,B,CD)!ped-up! | %21
!ped! (F,,,F,,C,F,A,C)!ped-up! |!ped! (B,,F,A,B,CD)!ped-up! |!ped! (G,,=D,F,B, =D2)!ped-up! | %24
!ped! (B,,E,G,B, =D2)!ped-up! |!ped! (G,,=D,F,B, =D2)!ped-up! |!ped! (E,,E,G,B,=DF)!ped-up! | %27
!ped! =D,,A,,=D,F,A,=E!ped-up! |!ped! (F2 =D2 C2)!ped-up! |!ped! (B,2 A,2 G,E,!ped-up! | %30
!ped! F,2 =D,2 A,,2)!ped-up! |!ped! (3(B,,,F,,B,,[I:staff -1](3^D,A,C[I:staff +1] (3F,-B,-) x | %32
 [F,B,]6- | [F,B,]2!ped-up! z2 z2 |!ped! (3(E,,B,,G, x2 (3E,B,G)!ped-up! | %35
!ped! (3=D,,A,,=F, x2 (3=D,A,=F!ped-up! |!ped! (3(E,,B,,G, x2 (3E,B,G)!ped-up! | %37
!ped! (3=G,,,=G,,D, x4!ped-up! |!ped! z6!ped-up! |!ped! (E,, B,,2 E,G,B,)!ped-up! | %40
!ped! E6!ped-up! |] %41
V:4
 !tenuto!E,,6 | !tenuto!=D,,6 | !tenuto!E,,6 | (!tenuto!=G,,4 A,,G,,) | E,,6 | =D,,6 | E,,6 | %7
 (=G,,4 A,,G,,) | E,,6 | =C,,6 | =C,,6 | !tenuto!E,,6 | [G,B,]6 | (3C,,G,,^E, x4 | [G,B,]6 | x6 | %16
 x6 | x6 | x6 | x6 | x6 | x6 | x6 | G,,6 | B,,6 | G,,6 | E,,6 | =D,,6 | x6 | x6 | x6 | x4 F,2 | %32
 x6 | x6 | E,,6 | =D,,6 | E,,6 | x6 | x6 | E,,,6 | x6 |] %41
V:5
 x6 | x6 | x6 | x6 | x6 | x6 | x6 | x6 | x6 | x6 | x6 | x6 | x6 | x6 | x6 | %15
 (3^a!<(!dB (3gd-B-!<)! [Bd]2 | (3^a!>(!dB (3gd-B-!>)! [Bd]2 | (3dBG (3cBG (3BG^E | %18
 (3(D"^poco rit."F^A, (3DFA, (3CF^A) | (3C=AF (3FcA (3GcA | (3DAF (3FA-F- [FA]2 | %21
 (3C=AF (3FcA (3GcA | (3AdB (3GdB (3FdB | (3F=dB (3Bfd (3cfd | (3G=dB (3Bd-B- [Bd]2 | %25
 (3F=dB (3Bfd (3cfd | (3=dge (3cge (3Bge | (3Bf=d (3Afd d2 | (3f=dA (3dAF (3cAF | %29
 (3BF=D (3AFD- D2 | (3F=DA,[K:bass] (3DA,F, (3A,F,=D, | x4[K:treble] (3z z [DAc]- | x6 | x6 | x6 | %35
 x6 | x6 | x6 | x6 | x6 | x6 |] %41

